src/main/resources/icons/AllIcons/debugger/db_verified_no_suspend_field_breakpoint.svg

<!-- Copyright 2000-2021 JetBrains s.r.o. Use of this source code is governed by the Apache 2.0 license that can be found in the LICENSE file. -->
<svg xmlns="http://www.w3.org/2000/svg" width="12" height="12" viewBox="0 0 12 12">
  <g fill="none" fill-rule="evenodd">
    <path fill="#EDA200" d="M4,2.32322866 L4,2.7568126 C4,3.03934809 4.11951834,3.30869878 4.32900855,3.49827768 L4.33523423,3.50391164 C3.5301773,4.0419131 3,4.95904178 3,6 C3,7.65685425 4.34314575,9 6,9 C7.65685425,9 9,7.65685425 9,6 C9,5.68537643 8.95156748,5.38206488 8.86175134,5.09711424 L10.3710279,3.7311857 C11.0507445,4.35860652 11.6079859,5.12990385 12,6 C10.9344941,8.36494733 8.64834001,10 6,10 C3.35165999,10 1.06550595,8.36494733 1.22014429e-11,6 C0.78509536,4.25743893 2.23290075,2.91114975 4,2.32322866 Z M5.11243052,4.20723817 L6.80779591,5.74146508 C7.14007477,6.04216202 7.62394987,6.08055693 7.99494206,5.85665481 C7.99829501,5.90400031 8,5.95180104 8,6 C8,7.1045695 7.1045695,8 6,8 C4.8954305,8 4,7.1045695 4,6 C4,5.21420428 4.45317413,4.53425304 5.11243052,4.20723817 Z"/>
    <polygon fill="#6E6E6E" fill-rule="nonzero" points="12 .908 7.479 5 5 2.757 5 1.854 5.998 1.854 7.48 3.194 11.009 0 12 0"/>
  </g>
</svg>

<svg xmlns="http://www.w3.org/2000/svg" width="12" height="12" viewBox="0 0 12 12"><rect id="frame" width="12" height="12" fill="none"/><g fill="none" fill-rule="evenodd"><path fill="#EDA200" d="M4 2.323v.434a1 1 0 0 0 .329.741l.006.006a3 3 0 1 0 4.527 1.593l1.509-1.366A7 7 0 0 1 12 6c-1.066 2.365-3.352 4-6 4S1.066 8.365 0 6c.785-1.743 2.233-3.089 4-3.677zm1.112 1.884l1.696 1.534a1 1 0 0 0 1.187.116 2 2 0 1 1-2.883-1.65z"/><path fill="#6E6E6E" fill-rule="nonzero" d="M12 .908L7.479 5 5 2.757v-.903h.998l1.482 1.34L11.009 0H12z"/></g></svg>
